X:1     
T:Still, Still, Still
B:The International Book of Christmas Carols, 1963, Walton Music Corporation
F:http://www.folkinfo.org/songs
K:Eb
M:4/4     
L:1/4     
(B e) (G B)| E3 (E/ G/) |F (F/ A/) D (D/ F/) | E3 G |
w:Still,_ still,_ still, He_ sleeps this_ night so_ chill! The
w:Still,_ still,_ still, Wiel's_ Kind-lein_ schla-fe_ will! Ma-
F (F/ G/) A F | G (G/ A/) B G | F (F/G/) A F | G (G/A/) B G |
w:Vir-gin's_ ten-der arms en_ fold-ing, Warm and_ safe the Child are_ hold-ing,
w:ri-a_tut es nie-der_ sin-gen, Ih-re_ keu-sche Brust dar_brin-gen,
(B e) (G B)| E3 (E/ G/) |F (F/ A/) D (D/ F/) | E3 z ||
w:Still,_ still,_ still, He_ sleeps this_ night so_ chill!
w:Still,_ still,_ still, Weil_ Kind-lein_ schla-fen_ will.
